X:1
T: Condon's Frolics
C:
R:Jig
Q:180
K:G
M:6/8
L:1/16
g2|e2c2A2 c4d2|e2d2c2 B2A2G2|A2B2A2 c4d2|e2d2e2 e2f2g2|e2c2A2 c4d2|e2d2c2 B2A2G2|A2B2A2 g2f2g2|e2c2A2 A4g2|
e2c2A2 c4d2|e2d2c2 B2A2G2|A2B2A2 c4d2|e2d2e2 e2f2g2|e2c2A2 c4d2|e2d2c2 B2A2G2|A2B2A2 g2f2g2|e2c2A2 A4e2|
e2a2a2 e2f2g2|d2e2c2 B2A2G2|c2B2c2 d2c2d2|e2f2e2 e2z2d2|e2a2a2 e2f2g2|d2e2c2 B2A2G2|A2B2A2 g2f2g2|e2c2A2 A4e2|
e2a2a2 e2f2g2|d2e2c2 B2A2G2|c2B2c2 d2c2d2|e2f2e2 e2z2d2|e2a2a2 e2f2g2|d2e2c2 B2A2G2|A2B2A2 g2f2g2|e2c2A2 A4||
